X:1
T:Høje Fjeld
T:Høje Fjeld
T:Norsk Folkemelodi
T:F. A. Reissiger
T:O. Skavlan
C:F. A. Reissiger
Z:O. Skavlan
%%score [ 1 2 3 4 ]
L:1/8
Q:1/4=92
M:6/8
K:Bb
V:1 treble-8 nm="T1"
V:2 treble-8 nm="T2"
V:3 bass nm="B1"
V:4 bass nm="B2"
V:1
!mf!"^Allegretto quasi Andantino" d2 B A B c | c2 B B3 | f e d!<(! e f!<)! g |!>(! f3!>)! f2 z | %4
w: 1.Hø- je Fjeld, det gjør|Him- len trang.|So- len den kom- mer saa|sil- de,|
!mf! d2 B A B c | c2 B B3 | f f (f/d/)!<(! e d!<)! g |!>(! f3!>)! f2 z |!p! d c B A B c | %9
w: ser paa Tind og paa|Fjel- de- hang,|glit- rer i _ Fos og i|Kil- de;|helst dog til Da- len, til|
 d e d d B A |!<(! B3!<)!!>(! B3-!>)! | B2 z z2 z |] %12
w: Stæ- ren og Sva- len den|vil- de.|_|
V:2
!mf! B2 F F F F | F2 F F3 | d c B!<(! B d!<)! e |!>(! (dcB)!>)! A2 z |!mf! B2 F F F F | F2 F F3 | %6
w: 1.Hø- je Fjeld, det gjør|Him- len trang.|So- len den kom- mer saa|sil- * * de,|ser paa Tind og paa|Fjel- de- hang,|
 B A B!<(! B B!<)! B |!>(! (ABd)!>)! c2 z |!p! B A B F F A | B B B B F F | %10
w: glit- rer i Fos og i|Kil- * * de;|helst dog til Da- len, til|Stæ- ren og Sva- len den|
!<(! (F G2)!<)!!>(! F3-!>)! | F2 z z2 z |] %12
w: vil- * de.|_|
V:3
!mf! F,2 D, C, D, E, | E,2 D, D,3 | B, B, B,!<(! B, B,!<)! B, |!>(! (B,A,G,)!>)! F,2 z | %4
w: 1.Hø- je Fjeld, det gjør|Him- len trang.|So- len den kom- mer saa|sil- * * de,|
!mf! F,2 D, C, D, E, | E,2 D, D,3 | D, E, F,!<(! F, F,!<)! E, |!>(! (F,2 B,)!>)! A,2 z | %8
w: ser paa Tind og paa|Fjel- de- hang,|glit- rer i Fos og i|Kil- * de;|
!p! F, F, F, F, F, F, | F, G, F, F, D, C, |!<(! (D, E,2)!<)!!>(! D,3-!>)! | D,2 z z2 z |] %12
w: helst dog til Da- len, til|Stæ- ren og Sva- len den|vil- * de.|_|
V:4
!mf! B,,2 B,, B,, B,, B,, | B,,2 B,, B,,3 | B,, B,, B,,!<(! G, F,!<)! E, |!>(! F,3!>)! F,2 z | %4
w: 1.Hø- je Fjeld, det gjør|Him- len trang.|So- len den kom- mer saa|sil- de,|
!mf! B,,2 B,, B,, B,, B,, | B,,2 B,, B,,3 | B,, C, (D,/B,,/)!<(! C, B,,!<)! E, | %7
w: ser paa Tind og paa|Fjel- de- hang,|glit- rer i _ Fos og i|
!>(! (F,D,B,,)!>)! F,2 z |!p! B,, C, D, E, D, C, | B,, B,, B,, F,, F,, F,, | %10
w: Kil- * * de;|helst dog til Da- len, til|Stæ- ren og Sva- len den|
!<(! B,,3!<)!!>(! B,,3-!>)! | B,,2 z z2 z |] %12
w: vil- de.|_|

